miscellanea/post-modern-icons/src/post-modern/20x20/mode/tm_image.svg

<?xml version="1.0" encoding="UTF-8" standalone="no"?>
<svg
   xmlns:dc="http://purl.org/dc/elements/1.1/"
   xmlns:cc="http://creativecommons.org/ns#"
   xmlns:rdf="http://www.w3.org/1999/02/22-rdf-syntax-ns#"
   xmlns:svg="http://www.w3.org/2000/svg"
   xmlns="http://www.w3.org/2000/svg"
   xmlns:sodipodi="http://sodipodi.sourceforge.net/DTD/sodipodi-0.dtd"
   xmlns:inkscape="http://www.inkscape.org/namespaces/inkscape"
   width="24"
   height="24"
   viewBox="0 0 24 24"
   fill="none"
   version="1.1"
   id="svg11811"
   sodipodi:docname="tm_image.svg"
   inkscape:export-filename="/Users/mgubi/t/devel/qt6/TeXmacs/misc/pixmaps/modern/20x20/mode/tm_image_x4.png"
   inkscape:export-xdpi="384"
   inkscape:export-ydpi="384"
   inkscape:version="1.0.2 (e86c870879, 2021-01-15)">
  <metadata
     id="metadata11817">
    <rdf:RDF>
      <cc:Work
         rdf:about="">
        <dc:format>image/svg+xml</dc:format>
        <dc:type
           rdf:resource="http://purl.org/dc/dcmitype/StillImage" />
        <dc:title />
      </cc:Work>
    </rdf:RDF>
  </metadata>
  <defs
     id="defs11815" />
  <sodipodi:namedview
     pagecolor="#ffffff"
     bordercolor="#666666"
     borderopacity="1"
     objecttolerance="10"
     gridtolerance="10"
     guidetolerance="10"
     inkscape:pageopacity="0"
     inkscape:pageshadow="2"
     inkscape:window-width="1080"
     inkscape:window-height="836"
     id="namedview11813"
     showgrid="false"
     inkscape:zoom="13.9375"
     inkscape:cx="12.830547"
     inkscape:cy="2.3006075"
     inkscape:window-x="26"
     inkscape:window-y="23"
     inkscape:window-maximized="0"
     inkscape:current-layer="svg11811"
     inkscape:document-rotation="0" />
  <path
     d="m 4,16 4.58579,-4.5858 c 0.78104,-0.781 2.04741,-0.781 2.82841,0 L 16,16 m -2,-2 1.5858,-1.5858 c 0.781,-0.781 2.0474,-0.781 2.8284,0 L 20,14 M 14,8 h 0.01"
     stroke="#4a5568"
     stroke-width="2"
     stroke-linecap="round"
     stroke-linejoin="round"
     id="path11809-37"
     sodipodi:nodetypes="ccsccssccc"
     style="fill:none;fill-opacity:1;stroke:#0000c0;stroke-width:1.5;stroke-miterlimit:4;stroke-dasharray:none;stroke-opacity:1" />
  <path
     d="m 6,20 h 12 c 1.1046,0 2,-0.8954 2,-2 V 6 C 20,4.89543 19.1046,4 18,4 H 6 C 4.89543,4 4,4.89543 4,6 v 12 c 0,1.1046 0.89543,2 2,2 z"
     stroke="#4a5568"
     stroke-width="2"
     stroke-linecap="round"
     stroke-linejoin="round"
     id="path11809-3"
     sodipodi:nodetypes="sssssssss"
     style="stroke-width:1.5;stroke-miterlimit:4;stroke-dasharray:none" />
</svg>

<?xml version="1.0" encoding="UTF-8" standalone="no"?>
<svg
   xmlns:dc="http://purl.org/dc/elements/1.1/"
   xmlns:cc="http://creativecommons.org/ns#"
   xmlns:rdf="http://www.w3.org/1999/02/22-rdf-syntax-ns#"
   xmlns:svg="http://www.w3.org/2000/svg"
   xmlns="http://www.w3.org/2000/svg"
   xmlns:sodipodi="http://sodipodi.sourceforge.net/DTD/sodipodi-0.dtd"
   xmlns:inkscape="http://www.inkscape.org/namespaces/inkscape"
   width="24"
   height="24"
   viewBox="0 0 24 24"
   fill="none"
   version="1.1"
   id="svg11811"
   sodipodi:docname="tm_image.svg"
   inkscape:export-filename="/Users/mgubi/t/devel/qt6/TeXmacs/misc/pixmaps/modern/20x20/mode/tm_image_x4.png"
   inkscape:export-xdpi="384"
   inkscape:export-ydpi="384"
   inkscape:version="1.0.2 (e86c8708, 2021-01-15)">
  <metadata
     id="metadata11817">
    <rdf:RDF>
      <cc:Work
         rdf:about="">
        <dc:format>image/svg+xml</dc:format>
        <dc:type
           rdf:resource="http://purl.org/dc/dcmitype/StillImage" />
        <dc:title></dc:title>
      </cc:Work>
    </rdf:RDF>
  </metadata>
  <defs
     id="defs11815" />
  <sodipodi:namedview
     pagecolor="#ffffff"
     bordercolor="#666666"
     borderopacity="1"
     objecttolerance="10"
     gridtolerance="10"
     guidetolerance="10"
     inkscape:pageopacity="0"
     inkscape:pageshadow="2"
     inkscape:window-width="1151"
     inkscape:window-height="845"
     id="namedview11813"
     showgrid="false"
     inkscape:zoom="27.875"
     inkscape:cx="12"
     inkscape:cy="12"
     inkscape:window-x="0"
     inkscape:window-y="23"
     inkscape:window-maximized="0"
     inkscape:current-layer="svg11811" />
  <path
     d="M4 16L8.58579 11.4142C9.36683 10.6332 10.6332 10.6332 11.4142 11.4142L16 16M14 14L15.5858 12.4142C16.3668 11.6332 17.6332 11.6332 18.4142 12.4142L20 14M14 8H14.01M6 20H18C19.1046 20 20 19.1046 20 18V6C20 4.89543 19.1046 4 18 4H6C4.89543 4 4 4.89543 4 6V18C4 19.1046 4.89543 20 6 20Z"
     stroke="#4A5568"
     stroke-width="2"
     stroke-linecap="round"
     stroke-linejoin="round"
     id="path11809" />
</svg>
